X: 1547
T: Hometown Waltz
B: australian traditional tunes wiki
M:3/4
R: Waltz
Q: 1/4=100
K:C
V:1 
B2||"G"d3e de|d2B2d2|b3 a ge|d2B2B2|"D"d3ed2|A6|d3e dB|"G"G4 Bc|
d3e de|d2B2d2|b3a ba|b2a2g2|"D"f2a2af|e2f2d2|"G"g4-ga|g2d2g2||
b6|b2a2g2|"D"f3af2|"Am"e6|c'3b c'b|"D"c'2b2a2|"G"g3a ge|d6|
d'3d' d'd'|"D"d'2c'2b2|"Am"a3ba2|e4fe|"D"d2f2af|d2e2f2|"G"g3f ea|g6||
% abcbook-tune_id 6342d53a77df3adbc188ac5d


% abcbook-boost 0
% abcbook-tablature 
% abcbook-transpose 
% abcbook-lastupdated 1665324370438
% abcbook-soundfonts 
% abcbook-repeats 1
% NFF Book 2009

